app/component-library/components/Icons/Icon/assets/monitor.svg

<svg width="24" height="24" viewBox="0 0 24 24" fill="none" xmlns="http://www.w3.org/2000/svg">
<path d="M17.8568 2H6.69566C4.26323 2 2.28125 3.98 2.28125 6.41V12.91V13.11C2.28125 15.55 4.26323 17.52 6.69566 17.52H10.5395C11.0901 17.52 11.5405 17.97 11.5405 18.52V19.49C11.5405 20.04 11.0901 20.49 10.5395 20.49H8.11709C7.70668 20.49 7.36634 20.83 7.36634 21.24C7.36634 21.65 7.69667 22 8.11709 22H16.4754C16.8859 22 17.2262 21.66 17.2262 21.25C17.2262 20.84 16.8859 20.5 16.4754 20.5H14.053C13.5025 20.5 13.052 20.05 13.052 19.5V18.53C13.052 17.98 13.5025 17.53 14.053 17.53H17.8668C20.3093 17.53 22.2812 15.55 22.2812 13.12V12.92V6.42C22.2712 3.98 20.2893 2 17.8568 2Z" fill="currentColor"/>
</svg>

<svg xmlns="http://www.w3.org/2000/svg" width="24" height="24" viewBox="0 0 24 24" fill="none"><path d="M17.857 2H6.696A4.42 4.42 0 0 0 2.28 6.41v6.7c0 2.44 1.982 4.41 4.415 4.41h3.844c.55 0 1 .45 1 1v.97c0 .55-.45 1-1 1H8.117a.756.756 0 0 0 0 1.51h8.358c.41 0 .751-.34.751-.75s-.34-.75-.75-.75h-2.423c-.55 0-1.001-.45-1.001-1v-.97c0-.55.45-1 1.001-1h3.814a4.413 4.413 0 0 0 4.414-4.41v-6.7C22.271 3.98 20.29 2 17.857 2z" fill="currentColor"/></svg>
